X: 11697
T: Eire
R: reel
M: 4/4
K: Gmajor
B3G EFGA|Bd d4 Bd|e3d B2 A B/c/|B<EE4 GE|
D3E G3 A|B c/d/ B4 G2|A3G FGAF|1 G8:|2 G6FG||
e3f g2eg|f6 gf|e3f g2 fe|dBB3 z B2|
e3f g3a|f6 B2|f3g e3d|e4 z2 B2|
e3d efga|f6 gf|e3d B2 A B/c/|B<EE4 GE|
D3E G3A|B c/d/ B4 G2|A3G F3A|G8||

